assets/icons/24px/outline/pause-24px.svg

<svg width="24" height="24" viewBox="0 0 24 24" fill="none" xmlns="http://www.w3.org/2000/svg">
<path d="M8 4C8 3.44772 7.55228 3 7 3C6.44772 3 6 3.44772 6 4H8ZM6 20C6 20.5523 6.44772 21 7 21C7.55228 21 8 20.5523 8 20H6ZM18 4C18 3.44772 17.5523 3 17 3C16.4477 3 16 3.44772 16 4H18ZM16 20C16 20.5523 16.4477 21 17 21C17.5523 21 18 20.5523 18 20H16ZM8 20V4H6V20H8ZM18 20V4H16V20H18Z" fill="white"/>
</svg>

<svg width="24" height="24" fill="none" xmlns="http://www.w3.org/2000/svg"><path d="M8 4a1 1 0 0 0-2 0h2zM6 20a1 1 0 1 0 2 0H6zM18 4a1 1 0 1 0-2 0h2zm-2 16a1 1 0 1 0 2 0h-2zm-8 0V4H6v16h2zm10 0V4h-2v16h2z" fill="#fff"/></svg>
